public/img/old-svg/envelope.svg

<svg width="17" height="13" viewBox="0 0 17 13" fill="none" xmlns="http://www.w3.org/2000/svg">
<path d="M15.5059 0.0253906H1.49414C0.671301 0.0253906 0 0.695961 0 1.51953V11.4805C0 12.3012 0.668312 12.9746 1.49414 12.9746H15.5059C16.3266 12.9746 17 12.3063 17 11.4805V1.51953C17 0.69875 16.3317 0.0253906 15.5059 0.0253906ZM15.2995 1.02148L8.53168 7.78938L1.70528 1.02148H15.2995ZM0.996094 11.2742V1.72104L5.79325 6.47706L0.996094 11.2742ZM1.70043 11.9785L6.50061 7.17834L8.18258 8.84587C8.37728 9.03891 8.69148 9.03828 8.88539 8.84434L10.5254 7.20434L15.2996 11.9785H1.70043ZM16.0039 11.2742L11.2297 6.5L16.0039 1.72579V11.2742Z" fill="black" fill-opacity="0.3"/>
</svg>

<svg width="17" height="13" viewBox="0 0 17 13" fill="none" xmlns="http://www.w3.org/2000/svg"><path d="M15.506.025H1.494C.671.025 0 .696 0 1.52v9.96c0 .821.668 1.495 1.494 1.495h14.012c.82 0 1.494-.669 1.494-1.495V1.52c0-.821-.668-1.495-1.494-1.495zm-.207.996L8.532 7.79 1.705 1.021H15.3zM.996 11.274V1.721l4.797 4.756-4.797 4.797zm.704.705l4.8-4.8 1.683 1.667a.498.498 0 00.702-.002l1.64-1.64L15.3 11.98H1.7zm14.304-.705L11.23 6.5l4.774-4.774v9.548z" fill="#000" fill-opacity=".3"/></svg>
